images/tags/data-lake-gen2.svg

<?xml version="1.0" encoding="UTF-8" standalone="no"?>
<svg
   xmlns:dc="http://purl.org/dc/elements/1.1/"
   xmlns:cc="http://creativecommons.org/ns#"
   xmlns:rdf="http://www.w3.org/1999/02/22-rdf-syntax-ns#"
   xmlns:svg="http://www.w3.org/2000/svg"
   xmlns="http://www.w3.org/2000/svg"
   xmlns:sodipodi="http://sodipodi.sourceforge.net/DTD/sodipodi-0.dtd"
   xmlns:inkscape="http://www.inkscape.org/namespaces/inkscape"
   viewBox="0 0 18 18"
   data-islogo="true"
   class=""
   role="presentation"
   focusable="false"
   id="FxSymbol0-0e6"
   data-type="63"
   version="1.1"
   sodipodi:docname="data-lake-gen2.svg"
   inkscape:version="0.92.2 (5c3e80d, 2017-08-06)"
   inkscape:export-filename="C:\Users\user\OneDrive\Personal\01. MarczakIO\images\tags\data-lake-gen2.png"
   inkscape:export-xdpi="6400"
   inkscape:export-ydpi="6400">
  <metadata
     id="metadata30">
    <rdf:RDF>
      <cc:Work
         rdf:about="">
        <dc:format>image/svg+xml</dc:format>
        <dc:type
           rdf:resource="http://purl.org/dc/dcmitype/StillImage" />
        <dc:title></dc:title>
      </cc:Work>
    </rdf:RDF>
  </metadata>
  <defs
     id="defs28" />
  <sodipodi:namedview
     pagecolor="#ffffff"
     bordercolor="#666666"
     borderopacity="1"
     objecttolerance="10"
     gridtolerance="10"
     guidetolerance="10"
     inkscape:pageopacity="0"
     inkscape:pageshadow="2"
     inkscape:window-width="640"
     inkscape:window-height="480"
     id="namedview26"
     showgrid="false"
     inkscape:current-layer="g23" />
  <g
     id="g23">
    <title
       id="title2" />
    <defs
       id="defs11">
      <linearGradient
         id="a06af2a2-274d-4a73-a200-95a0a116ffce"
         x1="9"
         y1="15.83"
         x2="9"
         y2="5.79"
         gradientUnits="userSpaceOnUse">
        <stop
           offset="0"
           stop-color="#b3b3b3"
           id="stop4" />
        <stop
           offset=".26"
           stop-color="#c1c1c1"
           id="stop6" />
        <stop
           offset="1"
           stop-color="#e6e6e6"
           id="stop8" />
      </linearGradient>
    </defs>
    <path
       d="M.5 5.79h17v9.48a.57.57 0 0 1-.57.57H1.07a.57.57 0 0 1-.57-.57V5.79z"
       fill="url(#a06af2a2-274d-4a73-a200-95a0a116ffce)"
       id="path13" />
    <path
       d="M1.07 2.17h15.86a.57.57 0 0 1 .57.57v3.05H.5V2.73a.57.57 0 0 1 .57-.56z"
       fill="#37c2b1"
       id="path15" />
    <path
       d="m 2.82,11.125 h 12.37 c 0.145198,0.0092 0.260099,0.212634 0.26,0.460384 v 2.404232 c 9.9e-5,0.24775 -0.239802,0.443396 -0.385,0.452572 L 2.9528125,14.434375 C 2.8076149,14.425199 2.5599005,14.237366 2.56,13.989616 V 11.585384 C 2.5599005,11.337634 2.6748024,11.134176 2.82,11.125 Z"
       id="path21"
       inkscape:connector-curvature="0"
       style="fill:#258277;stroke-width:1.30580556"
       sodipodi:nodetypes="ccccccccc" />
    <path
       d="m 2.82,8.83625 h 12.37 a 0.27,0.42360577 0 0 1 0.26,0.4236057 v 2.2121633 a 0.27,0.42360577 0 0 1 -0.26,0.423606 H 2.82 A 0.27,0.42360577 0 0 1 2.56,11.472019 V 9.3383012 A 0.27,0.42360577 0 0 1 2.82,8.83625 Z"
       id="path19"
       inkscape:connector-curvature="0"
       style="fill:#37c2b1;stroke-width:1.25256157" />
    <path
       d="M 2.8102363,6.3964163 H 15.191483 a 0.27024547,0.42132995 0 0 1 0.260236,0.42133 V 9.00242 A 0.27024547,0.42132995 0 0 1 15.191483,9.42375 H 2.8102363 A 0.27024547,0.42132995 0 0 1 2.55,9.00242 V 6.8177463 a 0.27024547,0.42132995 0 0 1 0.2602363,-0.42133 z"
       style="fill:#ffffff;stroke-width:1.24976003"
       id="path17"
       inkscape:connector-curvature="0" />
    <path
       d="M 1.7777802,5.8046088 H 15.695231 a 0.30377623,0.1311892 0 0 1 0.292526,0.1311883 V 6.6208967 A 0.30377623,0.1311892 0 0 1 15.695231,6.7520878 H 1.7777802 A 0.30377623,0.1311892 0 0 1 1.485255,6.6208976 V 5.9600922 A 0.30377623,0.1311892 0 0 1 1.7777802,5.8046088 Z"
       id="path19-3-9"
       inkscape:connector-curvature="0"
       style="opacity:1;fill:#e3e3e3;fill-opacity:1;stroke-width:0.73937058" />
    <path
       d="m 4.7740352,9.1328739 h 8.0774128 a 0.17630569,0.22886017 0 0 1 0.169776,0.2288601 v 1.195159 a 0.17630569,0.22886017 0 0 1 -0.169776,0.228861 H 4.7740352 A 0.17630569,0.22886017 0 0 1 4.6042594,10.556893 V 9.4041156 A 0.17630569,0.22886017 0 0 1 4.7740352,9.1328739 Z"
       id="path19-3"
       inkscape:connector-curvature="0"
       style="fill:#37c2b1;stroke-width:0.74396849" />
    <path
       style="opacity:1;fill:#ffffff;fill-opacity:1;stroke:none;stroke-width:7.00939369;stroke-linecap:butt;stroke-linejoin:round;stroke-miterlimit:4;stroke-dasharray:none;stroke-dashoffset:0;stroke-opacity:1;paint-order:stroke fill markers"
       d="M 2.5703125,9.0732701 A 2.147445,1.2774956 0 0 0 4.71875,10.34025 2.147445,1.2774956 0 0 0 6.8652344,9.0732701 Z m 4.2949219,0 A 2.147445,1.2774956 0 0 0 9.0136719,10.34025 2.147445,1.2774956 0 0 0 11.160156,9.0732701 Z m 4.2949216,0 a 2.147445,1.2774956 0 0 0 2.148438,1.2669799 2.147445,1.2774956 0 0 0 2.146484,-1.2669799 z"
       id="path870"
       inkscape:connector-curvature="0" />
    <path
       d="m 4.240025,11.608033 h 8.987697 a 0.19617447,0.22611896 0 0 1 0.188909,0.226119 v 1.180844 a 0.19617447,0.22611896 0 0 1 -0.188909,0.226118 H 4.240025 A 0.19617447,0.22611896 0 0 1 4.0511163,13.014996 V 11.834152 A 0.19617447,0.22611896 0 0 1 4.240025,11.608033 Z"
       id="path21-4"
       inkscape:connector-curvature="0"
       style="fill:#258277;stroke-width:0.7800563" />
    <path
       inkscape:connector-curvature="0"
       style="opacity:1;fill:#37c2b1;fill-opacity:1;stroke:none;stroke-width:7.00939369;stroke-linecap:butt;stroke-linejoin:round;stroke-miterlimit:4;stroke-dasharray:none;stroke-dashoffset:0;stroke-opacity:1;paint-order:stroke fill markers"
       d="m 2.5511314,11.564755 a 2.147445,1.2774956 0 0 0 2.1484375,1.266979 2.147445,1.2774956 0 0 0 2.1464847,-1.266979 z m 4.2949222,0 a 2.147445,1.2774956 0 0 0 2.148437,1.266979 2.147445,1.2774956 0 0 0 2.1464844,-1.266979 z m 4.2949214,0 a 2.147445,1.2774956 0 0 0 2.148439,1.266979 2.147445,1.2774956 0 0 0 2.146484,-1.266979 z"
       id="path870-7" />
    <path
       inkscape:connector-curvature="0"
       style="opacity:1;fill:#e3e3e3;fill-opacity:1;stroke:none;stroke-width:7.00939369;stroke-linecap:butt;stroke-linejoin:round;stroke-miterlimit:4;stroke-dasharray:none;stroke-dashoffset:0;stroke-opacity:1;paint-order:stroke fill markers"
       d="M 2.5511313,6.661686 A 2.147445,1.2774956 0 0 0 4.6995688,7.9286652 2.147445,1.2774956 0 0 0 6.8460532,6.661686 Z m 4.2949219,0 A 2.147445,1.2774956 0 0 0 8.9944907,7.9286652 2.147445,1.2774956 0 0 0 11.140976,6.661686 Z m 4.2949228,0 a 2.147445,1.2774956 0 0 0 2.148438,1.2669792 2.147445,1.2774956 0 0 0 2.146484,-1.2669792 z"
       id="path870-75" />
  </g>
</svg>

<svg id="j" class="" width="17" height="13.67" data-islogo="true" data-type="63" focusable="false" role="presentation" version="1.1" viewBox="0 0 17 13.67" xmlns="http://www.w3.org/2000/svg">
 <g id="e" transform="translate(-.5 -2.17)">
  <defs id="a">
   <linearGradient id="a06af2a2-274d-4a73-a200-95a0a116ffce" x1="9" x2="9" y1="15.83" y2="5.79" gradientUnits="userSpaceOnUse">
    <stop id="h" stop-color="#b3b3b3" offset="0"/>
    <stop id="i" stop-color="#c1c1c1" offset=".26"/>
    <stop id="q" stop-color="#e6e6e6" offset="1"/>
   </linearGradient>
  </defs>
  <path id="f" d="m0.5 5.79h17v9.48a0.57 0.57 0 0 1-0.57 0.57h-15.86a0.57 0.57 0 0 1-0.57-0.57z" fill="url(#a06af2a2-274d-4a73-a200-95a0a116ffce)"/>
  <path id="b" d="m1.07 2.17h15.86a0.57 0.57 0 0 1 0.57 0.57v3.05h-17v-3.06a0.57 0.57 0 0 1 0.57-0.56z" fill="#37c2b1"/>
  <path id="n" d="m2.82 11.125h12.37c0.1452 0.0092 0.2601 0.21263 0.26 0.46038v2.4042c9.9e-5 0.24775-0.2398 0.4434-0.385 0.45257l-12.112-0.007813c-0.1452-0.009176-0.39291-0.19701-0.39281-0.44476v-2.4042c-9.95e-5 -0.24775 0.1148-0.45121 0.26-0.46038z" fill="#258277" stroke-width="1.3058"/>
  <path id="k" d="m2.8111 8.6984h12.37a0.27 0.42361 0 0 1 0.26 0.4236v2.2122a0.27 0.42361 0 0 1-0.26 0.42361h-12.37a0.27 0.42361 0 0 1-0.26-0.42361v-2.1337a0.27 0.42361 0 0 1 0.26-0.50205z" fill="#37c2b1" stroke-width="1.2526"/>
  <path id="o" d="m4.28 11.448h8.9877a0.19617 0.22612 0 0 1 0.18891 0.22612v1.1808a0.19617 0.22612 0 0 1-0.18891 0.22612h-8.9877a0.19617 0.22612 0 0 1-0.18891-0.22612v-1.1808a0.19617 0.22612 0 0 1 0.18891-0.22612z" fill="#258277" stroke-width=".78006"/>
  <path id="c" d="m2.8102 6.3964h12.381a0.27025 0.42133 0 0 1 0.26024 0.42133v2.1847a0.27025 0.42133 0 0 1-0.26024 0.42133h-12.381a0.27025 0.42133 0 0 1-0.26024-0.42133v-2.1847a0.27025 0.42133 0 0 1 0.26024-0.42133z" fill="#fff" stroke-width="1.2498"/>
  <path id="d" d="m1.7778 5.8046h13.917a0.30378 0.13119 0 0 1 0.29253 0.13119v0.6851a0.30378 0.13119 0 0 1-0.29253 0.13119h-13.917a0.30378 0.13119 0 0 1-0.29253-0.13119v-0.66081a0.30378 0.13119 0 0 1 0.29253-0.15548z" fill="#e3e3e3" stroke-width=".73937"/>
  <path id="p" d="m4.7918 9.1151h8.0774a0.17631 0.22886 0 0 1 0.16978 0.22886v1.1952a0.17631 0.22886 0 0 1-0.16978 0.22886h-8.0774a0.17631 0.22886 0 0 1-0.16978-0.22886v-1.1528a0.17631 0.22886 0 0 1 0.16978-0.27124z" fill="#37c2b1" stroke-width=".74397"/>
  <path id="m" d="m2.5703 9.0021a2.1474 1.2775 0 0 0 2.1484 1.267 2.1474 1.2775 0 0 0 2.1465-1.267zm4.2949 0a2.1474 1.2775 0 0 0 2.1484 1.267 2.1474 1.2775 0 0 0 2.1465-1.267zm4.2949 0a2.1474 1.2775 0 0 0 2.1484 1.267 2.1474 1.2775 0 0 0 2.1465-1.267z" fill="#fff" style="paint-order:stroke fill markers"/>
  <path id="g" d="m2.5511 11.378a2.1474 1.2775 0 0 0 2.1484 1.267 2.1474 1.2775 0 0 0 2.1465-1.267zm4.2949 0a2.1474 1.2775 0 0 0 2.1484 1.267 2.1474 1.2775 0 0 0 2.1465-1.267zm4.2949 0a2.1474 1.2775 0 0 0 2.1484 1.267 2.1474 1.2775 0 0 0 2.1465-1.267z" fill="#37c2b1" style="paint-order:stroke fill markers"/>
  <path id="l" d="m2.5511 6.6617a2.1474 1.2775 0 0 0 2.1484 1.267 2.1474 1.2775 0 0 0 2.1465-1.267zm4.2949 0a2.1474 1.2775 0 0 0 2.1484 1.267 2.1474 1.2775 0 0 0 2.1465-1.267zm4.2949 0a2.1474 1.2775 0 0 0 2.1484 1.267 2.1474 1.2775 0 0 0 2.1465-1.267z" fill="#e3e3e3" style="paint-order:stroke fill markers"/>
 </g>
</svg>
